!!!!SEGMENT: pl-sa--l-1636--061_anonim--preambulum.krn
!!!cenid: 17xx:768
!!!COM: Anonim
!!!COM-rismid: pe30004985
!!!CDT:
!!!CNT:
!!!OTL: Preambulum
!!!PDT:
!!!AGN: Secular; Prelude
!!!SMS-siglum: PL-SA
!!!SMS-shelfmark: L 1636
!!!SMS-shelfwork: 061 W
!!!SMS-variant:
!!!SMS-altvar:
!!!NIFC-rismid: 1001076862
!!!URL-scan: http://repozytorium.nifc.pl/skany/pl-sa-nut--l1636
!!!ONB-nifc: 17r, skan 0020, s. 7-8
!!!key:
**kern	**kern
*part1	*part1
*staff2	*staff1
*Iorgan	*Iempty
*I"Organo	*
*I'Org.	*
*clefF4	*clefC1
*k[]	*k[]
*d:	*d:
*M2/2	*M2/2
*met(c|)	*met(c|)
=1	=1
!LO:TX:a:t=Pre ambulus	!LO:SIC:o:s:=:v:all\right
1D/ 1DD/	2dd/ 2a/ 2f/ 2d/
.	4d/
.	4e/
=2	=2
4D\	4f/
4E\	4g/
4F\	4a\
4G\	4b\
=3	=3
*^	*
2A/	1AA\	4cc\
.	.	4a\
2G/	.	4b\
.	.	4cc\
=4	=4	=4
4F/	1AA\	1dd\ 1a\ 1f\
4E/	.	.
4F/	.	.
4D/	.	.
=5	=5	=5
1E/	1AA\	4dd\
!	!	!LO:TX:a:t=P:problem:# above
.	.	8cc#X\L
.	.	8ee\J
!	!	!LO:TX:a:t=P:problem:# above
.	.	8cc#X\L
.	.	8dd\
!	!	!LO:TX:a:t=P:problem:# above
.	.	8cc#X\
.	.	16b\L
!	!	!LO:TX:a:t=P:problem:# above
.	.	16cc#X\JJ
=6	=6	=6
*	*2\right	*
2F/	2D\	8dd\L
.	.	8aa\
.	.	8gg\
.	.	8ee\J
2G/	2E\	8ee\L
.	.	8dd\
.	.	8cc\
!	!	!LO:TX:a:t=P:problem:♭ above
.	.	8b-X\J
=7	=7	=7
2A/	2F\	8a\L
.	.	8cc\
!	!	!LO:TX:a:t=P:problem:♭ above
.	.	8b-X\
.	.	8a\J
2B/	2G\	8g/L
.	.	8f/
.	.	8e/
.	.	8d/J
*v	*v	*
!!LO:LB:g=original
=8	=8
*	*2\right
*	*^
8A\L	[2e/	[2c#X\
8B\	.	.
8c#X\	.	.
8B\J	.	.
8A\L	2e/]	2c#\]
8G\	.	.
8F\	.	.
8E\J	.	.
*	*v	*v
=9	=9
8D\L	1f/ 1d/
8E\	.
8F\	.
8E\J	.
8D/L	.
8C/	.
!LO:TX:a:t=P:problem:♭ above	!
8BB-X/	.
8AA/J	.
=10	=10
*	*^
4GG/	2e/	4d\
4AA/	.	4c#X\
8BB-X/L	2f/	2d\
8AA/	.	.
8BB-/	.	.
16AA/L	.	.
16GG/JJ	.	.
*	*v	*v
=11-	=11-
*^	*
*	*^	*
2AA\	4.A/	2E/	8c#X/L
.	.	.	16d/L
.	.	.	16c#/JJ
.	.	.	16d/LL
.	.	.	16c#/
.	8G/	.	16B/
.	.	.	16c#/JJ
2AA\ 2DD\	2D/	2ryy	2f/ 2d/ 2A/
*v	*v	*v	*
=:|!	=:|!
*-	*-
!!!system-decoration: s1,s2
!!!EED: Leszek Kubiak
!!!EST: 2020-12-08
!!!AIN: 1 organ
!!!ENC: Tomasz Grochalski
!!!END: 2020-06-12
